public/assets/Sponsors/past/topcoder.svg

<?xml version="1.0" encoding="UTF-8"?>
<svg width="54px" height="20px" viewBox="0 0 54 20" version="1.1" xmlns="http://www.w3.org/2000/svg" xmlns:xlink="http://www.w3.org/1999/xlink">
    <!-- Generator: Sketch 52.5 (67469) - http://www.bohemiancoding.com/sketch -->
    <title>Group 3</title>
    <desc>Created with Sketch.</desc>
    <g id="Page-1" stroke="none" stroke-width="1" fill="none" fill-rule="evenodd">
        <g id="Desktop-navigation-specification" transform="translate(-30.000000, -94.000000)" fill="#FFFFFF">
            <g id="Group-3" transform="translate(30.000000, 94.000000)">
                <path d="M45.9026474,14.577922 C46.5020605,15.9265349 47.0655713,17.2865637 47.5778859,18.593665 C47.7967059,19.1519543 47.9755694,19.6215603 48.1092395,19.9806 C48.7950401,19.844113 49.4134478,19.4563029 49.9646509,18.7595783 C53.0996039,14.7964697 54.5511172,11.1875291 53.8092792,8.97531424 C52.8723707,6.18088362 48.295783,5.47375271 41.5645509,6.69652909 C42.9326079,8.45979274 44.3998537,11.1968033 45.9026474,14.577922 Z" id="Path"></path>
                <path d="M28.1633655,9.76413774 C31.4571061,8.26410953 35.6293484,6.87939068 39.5575074,6.01428084 C35.8556805,1.97220289 31.6636642,0 27.0097453,0 C22.7995272,0 18.278199,2.20042329 14.5012135,6.02293615 C18.4179065,6.88860997 22.5733615,8.26910862 25.8561252,9.76413774 C26.1852,9.91416763 26.5516212,10.0779367 27.0097453,10.2801647 C27.4678694,10.0779367 27.8342907,9.91416763 28.1633655,9.76413774 Z" id="Path"></path>
                <path d="M12.451283,6.69938672 C5.71273529,5.47273442 1.12847755,6.17836947 0.190716961,8.97534151 C-0.551111874,11.1875291 0.90040135,14.7964697 4.0353337,18.7595522 C4.614952,19.4921937 5.2686097,19.8839011 5.99726152,20 C6.33511186,16.6947624 9.37719952,10.4308205 12.451283,6.69938672 Z" id="Path"></path>
                <path d="M28.7764756,10.6040598 L28.6940975,10.6403869 C30.0475031,10.9501247 31.3749747,11.3955617 32.7396265,11.9875424 C35.591448,13.2246515 36.1220245,13.5498795 44.368546,18.8746176 C44.8330408,19.1745396 45.2020781,19.3855038 45.6921199,19.596605 C46.1264774,19.7837184 46.5522925,19.9163943 46.9622585,19.9845898 C46.7724916,19.4833057 46.5574848,18.9298012 46.3202445,18.3365499 C45.5960384,16.5255752 44.8140386,14.7148821 44.0040876,13.0269527 C42.9685008,10.8688006 41.9636262,9.07352924 41.0245252,7.76814682 C40.7982483,7.45361423 40.5773074,7.16982976 40.3623869,6.91823276 C37.6981146,7.36019163 32.1929074,9.1029812 28.7764756,10.6040598 Z" id="Path"></path>
                <path d="M7.07946765,19.9809637 C7.89084817,19.8434685 8.8562747,19.4424434 9.82726348,18.8775901 C10.5405757,18.462635 11.2898563,17.9926717 12.1988161,17.3962668 C12.7468479,17.0366811 14.7924947,15.6687356 14.6456824,15.7664276 C19.0070281,12.8642947 21.9627716,11.3065912 25.1711096,10.6191849 C21.5953352,9.06520614 16.6264171,7.43054909 13.6645516,6.92802733 C10.6286451,10.3870944 7.45808366,16.7803498 7.07946765,19.9809637 Z" id="Path"></path>
            </g>
        </g>
    </g>
</svg>

<svg width="54" height="20" xmlns="http://www.w3.org/2000/svg"><g fill="#FFF" fill-rule="evenodd"><path d="M45.903 14.578a97.989 97.989 0 0 1 2.206 5.403c.686-.137 1.304-.525 1.856-1.221 3.135-3.964 4.586-7.572 3.844-9.785-.937-2.794-5.513-3.501-12.244-2.278 1.368 1.763 2.835 4.5 4.338 7.88Zm-17.74-4.814c3.294-1.5 7.466-2.885 11.395-3.75C35.856 1.972 31.664 0 27.01 0 22.8 0 18.278 2.2 14.5 6.023c3.917.866 8.072 2.246 11.355 3.741.33.15.696.314 1.154.516a104.8 104.8 0 0 0 1.153-.516ZM12.451 6.7C5.713 5.472 1.128 6.177.191 8.974c-.742 2.213.71 5.821 3.844 9.785.58.732 1.234 1.124 1.962 1.24.338-3.305 3.38-9.57 6.454-13.3Zm16.325 3.904-.082.036a23 23 0 0 1 4.046 1.348c2.851 1.237 3.382 1.562 11.629 6.887.464.3.833.51 1.323.722.434.187.86.32 1.27.388a95.906 95.906 0 0 0-.642-1.648 87.545 87.545 0 0 0-2.316-5.31c-1.035-2.158-2.04-3.953-2.98-5.259a13.004 13.004 0 0 0-.662-.85c-2.664.442-8.17 2.185-11.586 3.686Z"/><path d="M7.08 19.981c.81-.138 1.776-.539 2.747-1.103a51.62 51.62 0 0 0 2.372-1.482c.548-.36 2.593-1.727 2.447-1.63 4.361-2.902 7.317-4.46 10.525-5.147-3.576-1.554-8.545-3.188-11.506-3.691-3.036 3.46-6.207 9.852-6.586 13.053Z"/></g></svg>
